X: 5174
T: Brings A Smile
R: slip jig
M: 9/8
K: Edorian
E2G BGB eBG|A2F DFA dAF|G2E EDE FGA|B2e def gfe|
E2G BGB ed/c/B|A2F DFA dAF|G2E EDE FGA|B2e def gfe||
f2d dcd fed|e2c Ace gfe|d2B BAB ~F3|1 GFE FGA Bde:|2 GFE FGA BGF||

